X:228
T:Jack In Green. JC.233
R:jig
S:John Clare,Poet,Helpstone (1793-1864)
O:England
A:Northamptonshire
Z:vmp.P. Headford
M:6/8
L:1/8
Q:3/8=120
K:D
“_Usually in 9/8″C2E D2F|E2G F2B|AFG FED|\
C2E D2F|E2c d2d|dAG FED||!
|:e2d c2B|AB” qu’s”c/d/e2d|edd cBA|\
e2d c2B|ABc d2d|dAG FED:|

